X:5114
T:The Day It Didn't Rain
M:4/4
R:Reel
L:1/8
Q:180
C:Aidan Crossey
K:D
|:F2AF BFAF|d3f edef|F2AF BFAF|G3B AGFE|
F2AF BFAF|d3f edef|g2ge f2fd|edce d4:||
|:f2df A2de|f2df A2de|e2ce Aece|Aece dcBA|
f2df A2de|f2df abaf|g2ge f2fd|edce d4:||
